X: 98
T: Piper's Lass
R: reel
Z: 2012 John Chambers <jc:trillian.mit.edu>
B: NEFR 98
M: C|
L: 1/8
K: D
|:"D"F2 AF DF AF | "G"G2 BG dG BG | "D"F2 AF DF Ad | "G"BG FG "A7"E2 DE |
| "D"F2 AF DF AF | "G"G2 BG dG BG | "D"FG AF DF Ad | "G"BG FG "A7"E2 "D"D2 :|
|:"D"AB de f2 fa | "G"ge fd "A7"ed Bd | "D"AB de fe fg | af df "A7"e2 dB |
| "D"AB de f2 fa | "G"ge fd "A7"ed Bd | "D"((3ABc) de fd fg | "D"af df "A7"e2 "D"d2 :|
